X:342
T: Kang babing
N: C1843
O: China,Ningxia Yanchi
S: I, 177]
N: Han
R: Xiaodiao, Da ningxia diao]
M: 2/4
L: 1/16
K: F
f2fdc2B2 | c2F2G4 | f2fdc2B2 | c2F2G4 |
f3gf2g2 | fgfdc4 | B2B4G2 | F2D2C4 |
f3dc2f2 | c4B2G2 | F2G2FGED | C8

@@@ Tune index: 6897
